X:146
T:Round About, The
M: C|
L:1/8
B:Thompson's Compleat Collection of 200 Favourite Country Dances, vol. 3 (London, 1773)
Z:Transcribed and edited by Flynn Titford-Mock, 2007
Z:abc's:AK/Fiddler's Companion
K:D
d2 (AG) F2 d2 | fedc dcBA | d2 (AG) F2d2 | A2c2 d4::a2 (gf) g2 (fe) | f2 ed e2 cA |
a2 gf g2 fe | fagf {f}e4 | d2 AG F2d2 | fedc dcBA | d2 AG F2 d2 | afge d4 :|

